X:1
T:Gradus ad Parnassum: Part I Annotations
T:CC0 1.0 Universal (Public Domain). Mark Gotham and FourScoreAndMore.org waive all rights to this document.
T:CC0 1.0 Universal (Public Domain). Mark Gotham and FourScoreAndMore.org waive all rights to this document.
T:CC0 1.0 Universal (Public Domain). Mark Gotham and FourScoreAndMore.org waive all rights to this document.
T:CC0 1.0 Universal (Public Domain). Mark Gotham and FourScoreAndMore.org waive all rights to this document.
T:CC0 1.0 Universal (Public Domain). Mark Gotham and FourScoreAndMore.org waive all rights to this document.
T:CC0 1.0 Universal (Public Domain). Mark Gotham and FourScoreAndMore.org waive all rights to this document.
T:CC0 1.0 Universal (Public Domain). Mark Gotham and FourScoreAndMore.org waive all rights to this document.
T:CC0 1.0 Universal (Public Domain). Mark Gotham and FourScoreAndMore.org waive all rights to this document.
T:CC0 1.0 Universal (Public Domain). Mark Gotham and FourScoreAndMore.org waive all rights to this document.
T:CC0 1.0 Universal (Public Domain). Mark Gotham and FourScoreAndMore.org waive all rights to this document.
T:CC0 1.0 Universal (Public Domain). Mark Gotham and FourScoreAndMore.org waive all rights to this document.
T:CC0 1.0 Universal (Public Domain). Mark Gotham and FourScoreAndMore.org waive all rights to this document.
T:CC0 1.0 Universal (Public Domain). Mark Gotham and FourScoreAndMore.org waive all rights to this document.
T:CC0 1.0 Universal (Public Domain). Mark Gotham and FourScoreAndMore.org waive all rights to this document.
Z:CC0 1.0 Universal (Public Domain). Mark Gotham and FourScoreAndMore.org waive all rights to this document.
%%score { 1 2 }
L:1/8
M:4/4
K:C
V:1 treble nm="Piano"
V:2 treble nm="Piano"
V:1
"^Fig. 5; Species: 1; Modal final: d; Cantus firmus: Lower" A8 | A8 | G8 | A8 | B8 | c8 | c8 | B8 | %8
w: P5|M3|m3|P5|M3|P5|m3|M3|
 d8 | ^c8 | d8 |] %11
w: M6|M6|P8|
"^Fig. 6 (corrected version); Species: 1; Modal final: d; Cantus firmus: Upper" D8 | F8 | E8 | D8 | %15
w: ||||
 G8 | F8 | A8 | G8 | F8 | E8 | D8 |] %22
w: |||||||
"^Fig. 11; Species: 1; Modal final: e; Cantus firmus: Lower" B8 | c8 | F8 | G8 | A8 | c8 | B8 | %29
w: P5|P8|m3|P5|P8|m3|M3|
 e8 | d8 | e8 |] %32
w: P8|M6|P8|
"^Fig. 12 (corrected version); Species: 1; Modal final: e; Cantus firmus: Upper" E8 | C8 | D8 | %35
w: |||
 C8 | A,8 | A8 | G8 | E8 | F8 | E8 |] %42
w: |||||||
"^Fig. 13; Species: 1; Modal final: f; Cantus firmus: Lower" F8 | E8 | C8 | F8 | F8 | G8 | A8 | %49
w: P1|m3|M6|P1|m3|m3|M3|
 G8 | C8 | F8 | E8 | F8 |] %54
w: P4|M6|P1|m3|P1|
[K:treble-8]"^Fig. 14; Species: 1; Modal final: f; Cantus firmus: Upper" F8 | G8 | A8 | F8 | D8 | %59
w: |||||
 E8 | F8 | c8 | A8 | F8 | G8 | F8 |] %66
w: |||||||
[K:treble]"^Fig. 15 (corrected version); Species: 1; Modal final: g; Cantus firmus: Lower" G8 | %67
w: P8|
 E8 | D8 | G8 | G8 | G8 | A8 | B8 | G8 | c8 | A8 | G8 | ^F8 | G8 |] %80
w: M3|m3|P8|P5|m3|P5|M3|m3|P8|P5|m6|M6|P8|
"^Fig. 21; Species: 1; Modal final: g; Cantus firmus: Upper" G,8 | C8 | B,8 | G,8 | C8 | E8 | D8 | %87
w: |||||||
 G8 | E8 | C8 | D8 | B,8 | A,8 | G,8 |] %94
w: |||||||
"^Fig. 22; Species: 1; Modal final: a; Cantus firmus: Lower" A8 | E8 | G8 | F8 | E8 | C8 | A,8 | %101
w: P8|M3|m6|m3|M3|M3|m6|
 B,8 | B,8 | A,8 | ^G8 | A8 |]"^Fig. 23; Species: 1; Modal final: a; Cantus firmus: Upper" A,8 | %107
w: P4|m3|m3|M6|P8||
 C8 | B,8 | D8 | C8 | E8 | F8 | E8 | D8 | C8 | B,8 | A,8 |] %118
w: |||||||||||
"^Fig. 33 (corrected version of 26); Species: 2; Modal final: d; Cantus firmus: Lower" A4 d4 | %119
w: P5 P8|
 A4 B4 | c4 G4 | A4 d4 | B4 c4 | d4 A4 | c4 d4 | e4 B4 | d4 A4 | B4 ^c4 | d8 |] %129
w: M3 A4|m6 m3|P5 P8|M3 P4|M6 M3|m3 P4|M6 M3|M6 M3|P5 M6|P8|
"^Fig. 35; Species: 2; Modal final: d; Cantus firmus: Upper" D8 | F8 | E8 | D8 | G8 | F8 | A8 | %136
w: |||||||
 G8 | F8 | E8 | D8 |]"^Fig. 36; Species: 2; Modal final: e; Cantus firmus: Lower" z4 B4 | c4 B4 | %142
w: ||||P5|P8 M7|
 A4 B4 | c4 G4 | A4 B4 | c4 A4 | B4 d4 | e4 d4 | c4 d4 | e8 |] %150
w: P5 M6|P8 P5|P8 M9|m3 P1|M3 P5|P8 m7|P5 M6|P8|
"^Fig. 37; Species: 2; Modal final: e; Cantus firmus: Upper" E8 | C8 | D8 | C8 | A,8 | A8 | G8 | %157
w: |||||||
 E8 | F8 | E8 |][K:treble]"^Fig. 38; Species: 2; Modal final: f; Cantus firmus: Lower" z4 F4 | %161
w: |||P8|
 E4 D4 | C4 _B,4 | A,4 G,4 | F,4 A,4 | C4 _B,4 | A,4 A4 | G4 E4 | F4 G4 | A4 F4 | D4 E4 | F8 |] %172
w: M6 P5|m3 m2|M3 M2|m3 P5|m6 d5|M3 M10|P5 M3|m6 m7|M10 P8|P5 M6|P8|
[K:treble-8]"^Fig. 39; Species: 2; Modal final: f; Cantus firmus: Upper" F8 | G8 | A8 | F8 | D8 | %177
w: |||||
 E8 | F8 | c8 | A8 | F8 | G8 | F8 |] %184
w: |||||||
[K:treble]"^Fig. 40; Species: 2; Modal final: g; Cantus firmus: Lower" z4 G4 | E4 F4 | G4 A4 | %187
w: P8|M3 P4|m6 m7|
 B4 A4 | G4 c4 | B4 c4 | d4 c4 | B4 A4 | G4 F4 | E4 c4 | B4 A4 | G4 D4 | E4 ^F4 | G8 |] %198
w: M10 M9|P5 P8|P5 m6|P8 m7|M3 M2|m3 m2|M3 P8|M6 P5|m6 m3|P5 M6|P8|
"^Fig. 41; Species: 2; Modal final: g; Cantus firmus: Upper" G,8 | C8 | B,8 | G,8 | C8 | E8 | D8 | %205
w: |||||||
 G8 | E8 | C8 | D8 | B,8 | A,8 | G,8 |] %212
w: |||||||
"^Fig. 42; Species: 2; Modal final: a; Cantus firmus: Lower" z4 A4 | E4 F4 | G4 D4 | E4 e4 | %216
w: P8|M3 P4|m6 m3|M3 M10|
 c4 B4 | A4 F4 | G4 B4 | d4 A4 | c4 E4 | ^F4 ^G4 | A8 |] %223
w: m6 P5|M3 P1|m3 P5|P8 P5|P8 M3|P5 M6|P8|
"^Fig. 43; Species: 2; Modal final: a; Cantus firmus: Upper" A,8 | C8 | B,8 | D8 | C8 | E8 | F8 | %230
w: |||||||
 E8 | D8 | C8 | B,8 | A,8 |] %235
w: |||||
[K:treble]"^Fig. 44; Species: 2; Modal final: c; Cantus firmus: Lower" z4 G4 | c4 B4 | A4 d4 | %238
w: P5|m6 P5|M3 M6|
 B4 A4 | G4 B4 | c4 d4 | e4 d4 | c4 B4 | A4 B4 | c4 G4 | A4 B4 | c8 |] %247
w: M3 M2|m3 P5|m3 P4|M6 P5|m6 P5|M3 A4|m6 m3|P5 M6|P8|
"^Fig. 45; Species: 2; Modal final: c; Cantus firmus: Upper" C8 | E8 | F8 | G8 | E8 | A8 | G8 | %254
w: |||||||
 E8 | F8 | E8 | D8 | C8 |] %259
w: |||||
"^Fig. 55; Species: 3; Modal final: d; Cantus firmus: Lower" D2 E2 F2 G2 | A2 B2 c2 d2 | %261
w: P1 M2 m3 P4|M3 A4 P5 M6|
 e2 d2 B2 c2 | d2 c2 _B2 A2 | _B2 c2 d2 e2 | f2 F2 A2 B2 | c2 A2 _B2 c2 | _B2 A2 G2 B2 | %267
w: P8 m7 P5 m6|P8 m7 m6 P5|m3 P4 P5 M6|P8 P1 M3 A4|m3 P1 m2 m3|m3 M2 P1 m3|
 A2 D2 E2 F2 | G2 A2 B2 ^c2 | d8 |] %270
w: M3 m3 m2 P1|m3 P4 P5 M6|P8|
"^Fig. 56; Species: 3; Modal final: d; Cantus firmus: Upper" D8 | F8 | E8 | D8 | G8 | F8 | A8 | %277
w: |||||||
 G8 | F8 | E8 | D8 |] %281
w: ||||
[K:treble]"^Fig. 57; Species: 3; Modal final: e; Cantus firmus: Lower" B2 G2 A2 B2 | c2 B2 A2 G2 | %283
w: P5 m3 P4 P5|P8 M7 M6 P5|
 F2 G2 A2 B2 | c2 E2 F2 G2 | A2 c2 e2 d2 | c2 B2 A2 c2 | B2 d2 B2 A2 | G2 B2 c2 B2 | A2 B2 c2 d2 | %290
w: m3 P4 P5 M6|P8 M3 P4 P5|P8 m10 P12 P11|m3 M2 P1 m3|M3 P5 M3 M2|m3 P5 m6 P5|M3 A4 P5 M6|
 e8 |][K:treble]"^Fig. 58; Species: 3; Modal final: e; Cantus firmus: Upper" E8 | C8 | D8 | C8 | %295
w: P8|||||
 A,8 | A8 | G8 | E8 | F8 | E8 |] %301
w: ||||||
[K:treble]"^Fig. 59; Species: 3; Modal final: f; Cantus firmus: Lower" F2 E2 D2 C2 | B,2 D2 G2 F2 | %303
w: P8 M7 M6 P5|M3 P5 P8 m7|
 E2 D2 C2 _B,2 | A,2 C2 D2 E2 | F2 D2 E2 F2 | G2 E2 F2 G2 | A2 G2 F2 A2 | G2 F2 E2 D2 | %309
w: P5 P4 m3 m2|M3 P5 M6 M7|m10 P8 M9 m10|m10 P8 m9 m10|M10 M9 P8 M10|P5 P4 M3 M2|
 C2 E2 C2 E2 | F2 E2 D2 C2 | _B,2 C2 D2 E2 | F8 |] %313
w: m3 P5 m3 P5|P8 M7 M6 P5|m3 P4 P5 M6|P8|
[K:treble-8]"^Fig. 59; Species: 3; Modal final: f; Cantus firmus: Upper" F8 | G8 | A8 | F8 | D8 | %318
w: |||||
 E8 | F8 | c8 | A8 | F8 | G8 | F8 |] %325
w: |||||||
[K:treble]"^Fig. 73; Species: 4; Modal final: d; Cantus firmus: Lower" z4 A4- | A4 d4- | d4 c4- | %328
w: P5|M3 M6|m7 m6|
 c4 _B4- | B4 G4 | A4 c4- | c4 f4- | f4 e4- | e4 d4- | d4 ^c4 | d8 |] %336
w: m7 m6|m3 P1|M3 P5|m3 m6|m7 M6|M7 M6|m7 M6|P8|
[K:treble]"^Fig. 74; Species: 4; Modal final: d; Cantus firmus: Upper" D8 | F8 | E8 | D8 | G8 | %341
w: |||||
 F8 | A8 | G8 | F8 | E8 | D8 |] %347
w: ||||||
[K:treble]"^Fig. 75; Species: 4; Modal final: e; Cantus firmus: Lower" z4 e4- | e4 c4- | c4 B4 | %350
w: P8|M10 P8|m7 M6|
 c4 E4- | E4 F4- | F4 c4- | c4 B4- | B4 e4- | e4 d4 | e8 |] %357
w: P8 M3|P5 m6|M3 m3|P4 M3|P5 P8|M7 M6|P8|
[K:treble]"^Fig. 76; Species: 4; Modal final: e; Cantus firmus: Upper" E8 | C8 | D8 | C8 | A,8 | %362
w: |||||
 A8 | G8 | E8 | F8 | E8 |] %367
w: |||||
[K:treble]"^Fig. 77; Species: 4; Modal final: f; Cantus firmus: Lower" z4 F4- | F4 E4- | E4 C4- | %370
w: P8|m7 M6|P5 m3|
 C4 F4- | F4 A4- | A4 G4- | G4 F4- | F4 E4- | E4 A4- | A4 F4- | F4 E4 | F8 |] %379
w: P5 P8|m10 P12|P11 m10|M9 P8|P4 M3|P5 P8|M10 P8|m7 M6|P8|
[K:treble-8]"^Fig. 78; Species: 4; Modal final: f; Cantus firmus: Upper" F8 | G8 | A8 | F8 | D8 | %384
w: |||||
 E8 | F8 | c8 | A8 | F8 | G8 | F8 |] %391
w: |||||||
[K:treble]"^Fig. 82; Species: 5; Modal final: d; Cantus firmus: Lower" z4 A4- | A2 D2 E2 F2 | %393
w: P5|M3 m3 m2 P1|
 G2 F2 E2 G2 | F2 D2 d4- | d2 c2 _B2 G2 | A2 B2 c4- | c4 f4- | f2 ed e4- | e2 A2 d4- | d4 ^c4 | %401
w: m3 m2 P1 m3|m3 P1 P8|P5 P4 m3 P1|M3 A4 P5|m3 m6|m7 M6 P5 M6|M7 M3 M6|m7 M6|
 d8 |][K:treble-8]"^Fig. 83; Species: 5; Modal final: d; Cantus firmus: Upper" d8 | f8 | e8 | d8 | %406
w: P8|||||
 g8 | f8 | a8 | g8 | f8 | e8 | d8 |] %413
w: |||||||
[K:treble]"^Fig. 84a; Species: 5; Modal final: e; Cantus firmus: Lower" z4 e4- | e2 d2 c2 B2 | %415
w: P8|M10 M9 P8 M7|
 A2 G2 F2 D2 | E2 G2 c4- | c2 B2 A2 G2 | F4 c4- | c2 BA B2 A2 | G2 E2 e4- | e4 d4 | e8 |] %423
w: P5 P4 m3 P1|M3 P5 P8|m10 M9 P8 m7|M3 m3|P4 M3 M2 M3 M2|m3 P1 P8|M7 M6|P8|
[K:treble]"^Fig. 84b; Species: 5; Modal final: e; Cantus firmus: Upper" E8 | C8 | D8 | C8 | A,8 | %428
w: |||||
 A8 | G8 | E8 | F8 | E8 |] %433
w: |||||
[K:treble]"^Fig. 85a; Species: 5; Modal final: f; Cantus firmus: Lower" z4 F4- | F4 E2 D2 | %435
w: P8|m7 M6 P5|
 C2 A,2 C4- | C2 A,2 D4- | D2 C2 _B,2 A,2 | G,4 C2 _B,2 | A,4 A4- | A4 G4 | A2 G2 F2 E2 | %442
w: m3 P1 m3|P5 M3 M6|P8 m7 m6 P5|m3 m6 d5|M3 M10|M6 P5|P8 m7 m6 P5|
 D2 C2 F4- | F4 E4 | F8 |] %445
w: M6 P5 P8|m7 M6|P8|
[K:treble-8]"^Fig. 85b; Species: 5; Modal final: f; Cantus firmus: Upper" F8 | G8 | A8 | F8 | D8 | %450
w: |||||
 E8 | F8 | c8 | A8 | F8 | G8 | F8 |] %457
w: |||||||
[K:treble]"^Fig. 86a; Species: 5; Modal final: g; Cantus firmus: Lower" z4 G4- | G2 F2 E2 DC | %459
w: P8|P5 P4 M3 M2 P1|
 D4 G2 A2 | B2 c2 d2 B2 | e2 d2 c4- | c2 B2 A2 G2 | A2 Bc d2 c2 | B2 G2 B4- | B2 A2 G4- | %466
w: m3 m6 m7|M10 P11 P12 M10|M10 M9 P8|m6 P5 P4 m3|P5 M6 m7 P8 m7|M3 P1 M3|P5 P4 m3|
 G2 F2 E2 G2 | ^F2 G2 A4 | A2 G2 G4- | G4 ^F4 | G8 |] %471
w: P5 P4 M3 P5|M3 P4 P5|m7 m6 m6|m7 M6|P8|
"^Fig. 86b; Species: 5; Modal final: g; Cantus firmus: Upper" G,8 | C8 | B,8 | G,8 | C8 | E8 | D8 | %478
w: |||||||
 G8 | E8 | C8 | D8 | B,8 | A,8 | G,8 |] %485
w: |||||||
"^Fig. 87a; Species: 5; Modal final: a; Cantus firmus: Lower" z4 A4- | A4 G2 A2 | B2 G2 B4- | %488
w: P8|M6 P5 M6|P8 m6 P8|
 B4 A2 B2 | c2 G2 c4- | c2 BA B2 c2 | d2 A2 d4- | d2 c2 c4- | c2 BA B4- | B2 E2 A4- | A4 ^G4 | %496
w: M6 P5 M6|P8 P5 P8|m6 P5 P4 P5 m6|M6 M3 M6|m7 m6 m6|m7 M6 P5 M6|M7 M3 M6|m7 M6|
 A8 |][K:treble]"^Fig. 87a; Species: 5; Modal final: a; Cantus firmus: Upper" A,8 | C8 | B,8 | D8 | %501
w: P8|||||
 C8 | E8 | F8 | E8 | D8 | C8 | B,8 | A,8 |] %509
w: ||||||||
[K:treble]"^Fig. 88a; Species: 5; Modal final: c; Cantus firmus: Lower" z4 c4- | c4 B4 | %511
w: P8|m7 M6|
 A2 B2 c2 d2 | e4 d2 c2 | B2 A2 G4 | A4 d4- | d2 G2 c4- | c4 B4 | c8 |] %518
w: M3 A4 P5 M6|P8 m7 m6|M3 M2 P1|M3 M6|m7 m3 m6|m7 M6|P8|
"^Fig. 88b; Species: 5; Modal final: c; Cantus firmus: Upper" C8 | D8 | F8 | E8 | G8 | F8 | E8 | %525
w: |||||||
 D8 | C8 |] %527
w: ||
V:2
 D8 | F8 | E8 | D8 | G8 | F8 | A8 | G8 | F8 | E8 | D8 |][K:treble-8] D8 | D8 | A8 | F8 | E8 | D8 | %17
w: |||||||||||P8|m10|P5|M6|m10|m10|
 F8 | c8 | d8 | ^c8 | d8 |][K:treble] E8 | C8 | D8 | C8 | A,8 | A8 | G8 | E8 | F8 | E8 |] %32
w: M10|P5|m3|m3|P1|||||||||||
[K:treble-8] E8 | A8 | D8 | E8 | F8 | F8 | c8 | c8 | d8 | e8 |][K:treble] F8 | G8 | A8 | F8 | D8 | %47
w: P8|m3|P8|m6|M3|M10|P5|M3|m3|P1||||||
 E8 | F8 | c8 | A8 | F8 | G8 | F8 |][K:bass] F,8 | E,8 | F,8 | A,8 | _B,8 | G,8 | A,8 | E,8 | F,8 | %63
w: |||||||P1|m3|M3|M3|m6|m3|M3|m6|M3|
 D,8 | E,8 | F,8 |][K:treble] G,8 | C8 | B,8 | G,8 | C8 | E8 | D8 | G8 | E8 | C8 | D8 | B,8 | A,8 | %79
w: m3|m3|P1||||||||||||||
 G,8 |][K:treble-8] G8 | A8 | G8 | E8 | E8 | C8 | G8 | B8 | c8 | A8 | ^F8 | G8 | ^F8 | G8 |] %94
w: |P1|m3|M3|m3|m6|M10|P5|m6|M3|m3|m6|M3|m3|P1|
[K:treble] A,8 | C8 | B,8 | D8 | C8 | E8 | F8 | E8 | D8 | C8 | B,8 | A,8 |][K:treble-8] A8 | A8 | %108
w: ||||||||||||P1|m3|
 G8 | F8 | E8 | E8 | D8 | C8 | G8 | A8 | ^G8 | A8 |][K:treble] D8 | F8 | E8 | D8 | G8 | F8 | A8 | %125
w: M3|M6|m6|P8|m10|M10|P5|m3|m3|P1||||||||
 G8 | F8 | E8 | D8 |][K:bass] z4 D,4 | D4 A,4 | C4 A,4 | B,4 A,4 | G,4 B,4 | D4 E4 | F4 C4 | %136
w: ||||P8|m3 m6|M3 P5|m3 P4|P8 m6|m3 m2|M3 M6|
 E4 B,4 | D4 D,4 | A,4 ^C4 | D8 |][K:treble] E8 | C8 | D8 | C8 | A,8 | A8 | G8 | E8 | F8 | E8 |] %150
w: m3 m6|m3 m10|P5 m3|P1|||||||||||
[K:treble-8] z4 E4 | A4 G4 | F4 D4 | E4 C4 | F4 c4 | f4 d4 | e4 d4 | c4 B4 | A4 d4 | e8 |] %160
w: P8|m3 P4|M6 P8|m6 P8|M3 m3|M3 P5|m3 P4|M3 P4|m6 m3|P1|
[K:treble-8] F8 | G8 | A8 | F8 | D8 | E8 | F8 | c8 | A8 | F8 | G8 | F8 |] z4 F4 | E4 C4 | F4 E4 | %175
w: ||||||||||||P1|m3 P5|M3 P4|
 D4 C4 | _B,4 _B4 | G4 c4 | A4 F4 | E4 C4 | F4 F,4 | A,4 D4 | C4 E4 | F8 |][K:treble] G,8 | C8 | %186
w: m3 P4|M3 m6|m3 m6|M3 P1|m6 P8|M3 M10|m6 m3|P5 m3|P1|||
 B,8 | G,8 | C8 | E8 | D8 | G8 | E8 | C8 | D8 | B,8 | A,8 | G,8 |][K:treble-8] z4 G4 | E4 F4 | %200
w: ||||||||||||P1|m6 P5|
 G4 F4 | E4 D4 | C4 E4 | C4 c4 | B4 A4 | G4 B4 | c4 B4 | A4 G4 | ^F4 D4 | G4 B,4 | D4 ^F4 | G8 |] %212
w: M3 A4|m3 P4|P8 m6|M10 M3|m3 P4|P8 m6|M3 P4|m3 P4|m6 P8|M3 P8|P5 m3|P1|
[K:treble] A,8 | C8 | B,8 | C8 | E8 | F8 | E8 | D8 | C8 | B,8 | A,8 |][K:bass] z4 A,,4 | A,4 E,4 | %225
w: |||||||||||P8|m3 m6|
 G,4 E,4 | D,4 F,4 | A,4 B,4 | C4 C,4 | D,4 A,,4 | C,4 E,4 | F,4 G,4 | A,4 A,,4 | E,4 ^G,4 | A,8 |] %235
w: M3 P5|P8 M6|m3 m2|M3 M10|m10 m13|M10 P8|M6 P5|m3 m10|P5 m3|P1|
[K:treble] C8 | E8 | F8 | G8 | E8 | A8 | G8 | E8 | F8 | E8 | D8 | C8 |][K:treble-8] z4 C4 | c4 B4 | %249
w: ||||||||||||P8|M3 P4|
 A4 d4 | B4 G4 | c4 B4 | A4 c4 | e4 d4 | c4 A4 | d4 A4 | c4 C4 | G4 B4 | c8 |][K:treble] D8 | F8 | %261
w: m6 m3|m6 P8|M3 P4|P8 M6|m3 P4|M3 P5|m3 m6|M3 M10|P5 m3|P1|||
 E8 | D8 | G8 | F8 | A8 | G8 | F8 | E8 | D8 |][K:treble-8] D2 E2 F2 G2 | A2 D2 A2 B2 | %272
w: |||||||||P8 m7 M6 P5|m6 m10 m6 d5|
 c2 B2 G2 A2 | B2 A2 G2 F2 | E2 e2 B2 c2 | d2 A2 D2 E2 | F2 G2 A2 B2 | c2 d2 e2 c2 | d2 A2 D2 d2 | %279
w: M3 P4 M6 P5|m3 P4 P5 M6|m10 m3 m6 P5|m3 m6 m10 m9|M10 M9 P8 m7|P5 P4 m3 P5|m3 m6 m10 m3|
 ^c2 A2 B2 c2 | d8 |][K:treble][K:treble] E8 | C8 | D8 | C8 | A,8 | A8 | G8 | E8 | F8 | E8 |] %291
w: m3 P5 P4 m3|P1|||||||||||
[K:treble-8] E2 F2 G2 E2 | A2 G2 F2 E2 | D2 E2 F2 G2 | A2 E2 A2 G2 | F2 E2 D2 E2 | F2 G2 A2 B2 | %297
w: P8 M7 M6 P8|m3 P4 P5 m6|P8 m7 M6 P5|m3 m6 m3 P4|M3 P4 P5 P4|M10 M9 P8 m7|
 c2 d2 e2 d2 | c2 C2 c2 B2 | A2 d2 A2 d2 | e8 |][K:treble-8] F8 | G8 | A8 | F8 | D8 | E8 | F8 | %308
w: P5 P4 m3 P4|M3 M10 M3 P4|m6 m3 m6 m3|P1||||||||
 c8 | A8 | F8 | G8 | F8 |][K:bass] F,,2 F,2 E,2 D,2 | E,2 C,2 D,2 E,2 | F,2 E,2 D,2 C,2 | %316
w: |||||P8 P1 m2 m3|m3 P5 P4 m3|M3 P4 P5 M6|
 D,2 C,2 _B,,2 A,,2 | _B,,2 F,2 _B,2 A,2 | G,2 C,2 C2 _B,2 | A,2 G,2 F,2 D,2 | E,2 C,2 D,2 E,2 | %321
w: m3 P4 P5 m6|M3 m3 m6 P5|m3 M3 m6 d5|M3 M2 P1 m3|m6 P8 m7 m6|
 F,2 E,2 D,2 C,2 | D,2 E,2 F,2 D,2 | E,2 C,2 D,2 E,2 | F,8 |][K:treble] D8 | F8 | E8 | D8 | G8 | %330
w: M3 P4 P5 M6|m3 m2 P1 m3|m3 P5 P4 m3|P1||||||
 F8 | A8 | G8 | F8 | E8 | D8 |][K:treble-8] z4 D4- | D4 d4- | d4 c4- | c4 B4- | B4 e4- | e4 d4- | %342
w: ||||||P8|m10 m3|M2 M3|M2 m3|m6 m3|m2 m3|
 d4 f4- | f4 e4- | e4 d4- | d4 ^c4 | d8 |][K:treble] E8 | C8 | D8 | C8 | A,8 | A8 | G8 | E8 | F8 | %356
w: P5 M3|M2 m3|m2 m3|M2 m3|P1||||||||||
 E8 |][K:treble-8] z4 E4- | E4 A4- | A4 G4- | G4 F4- | F4 D4- | D4 d4- | d4 c4- | c4 e4- | e4 d4 | %366
w: |P8|m6 m3|P4 P5|P4 P5|M3 P5|P12 P5|P4 P5|M3 P1|m2 m3|
 e8 |][K:treble-8] F8 | G8 | A8 | F8 | D8 | E8 | F8 | c8 | A8 | F8 | G8 | F8 |][K:bass] z4 F,4- | %380
w: P1|||||||||||||P1|
 F,4 E,4- | E,4 D,4- | D,4 _B,,4- | B,,4 G,,4- | G,,4 G,4- | G,4 F,4- | F,4 E,4- | E,4 D,4- | %388
w: M2 m3|P4 P5|m3 P5|M3 P5|M6 m3|M2 P1|P5 m6|P4 P5|
 D,4 F,4- | F,4 E,4 | F,8 |][K:treble] D8 | F8 | E8 | D8 | G8 | F8 | A8 | G8 | F8 | E8 | D8 |] %402
w: m3 P1|M2 m3|P1||||||||||||
[K:bass] z4 D4- | D4 A,2 B,2 | C2 G,2 C4- | C2 B,A, B,2 A,2 | G,2 A,2 B,2 C2 | D2 A,2 D4- | %408
w: P1|m3 m6 d5|M3 M6 M3|M2 m3 P4 m3 P4|P8 m7 m6 P5|m3 m6 m3|
 D2 E2 F4- | F2 ED E4- | E2 A,2 D4- | D4 ^C4 | D8 |][K:treble] E8 | C8 | D8 | C8 | A,8 | A8 | G8 | %420
w: P5 P4 M3|M2 m3 P4 m3|m2 m6 m3|M2 m3|P1||||||||
 E8 | F8 | E8 |][K:treble-8] z4 E4 | A2 B2 c4- | c2 BA B2 G2 | A4 E4 | F2 D2 F4- | F2 G2 A2 B2 | %429
w: |||P8|m3 m2 P1|M2 m3 P4 m3 P5|m3 m6|M3 P5 M3|M10 M9 P8 m7|
 c2 B2 c4- | c2 d2 e4- | e4 d4 | e8 |][K:treble-8] F8 | G8 | A8 | F8 | D8 | E8 | F8 | c8 | A8 | %442
w: P5 m6 P5|M3 M2 P1|m2 m3|P1||||||||||
 F8 | G8 | F8 |][K:bass] z4 F,4- | F,2 E,D, C,2 _B,,2 | A,,2 G,,2 F,,4- | F,,2 A,,2 _B,,4- | %449
w: |||P1|M2 m3 P4 P5 M6|P8 M9 M10|P8 m6 P5|
 B,,2 C,2 D,4- | D,4 C,2 _B,,2 | A,,4 F,4 | E,4 F,4- | F,2 E,2 D,4 | D,2 E,2 F,4- | F,4 E,4 | %456
w: M3 M2 P1|M2 M3 A4|m6 P1|m6 P5|M3 P4 P5|m3 m2 P1|M2 m3|
 F,8 |][K:treble] G,8 | C8 | B,8 | G,8 | C8 | E8 | D8 | G8 | E8 | C8 | D8 | B,8 | A,8 | G,8 |] %471
w: P1|||||||||||||||
[K:treble-8] z4 G4 | E4 A4- | A4 G2 F2 | E2 C2 E4- | E4 A4- | A2 B2 c4- | c4 B2 A2 | B4 e2 d2 | %479
w: P1|m6 m3|M2 M3 A4|m3 P5 m3|m6 m3|P5 P4 M3|M2 m3 P4|m6 m3 P4|
 c2 B2 A4- | A2 B2 c4- | c4 B2 A2 | G2 D2 G4- | G4 ^F4 | G8 |][K:treble] A,8 | C8 | B,8 | D8 | C8 | %490
w: M3 P4 P5|m3 m2 P1|M2 m3 P4|M3 M6 M3|M2 m3|P1||||||
 E8 | F8 | E8 | D8 | C8 | B,8 | A,8 |][K:treble-8] z4 A4- | A2 G2 E2 F2 | G2 D2 G4- | G2 A2 B4- | %501
w: |||||||P1|m3 P4 m6 P5|M3 M6 M3|P5 P4 m3|
 B4 A4- | A2 B2 c2 B2 | A4 d4- | d2 c2 c4- | c2 BA B4- | B2 E2 A4- | A4 ^G4 | A8 |][K:treble] C8 | %510
w: m2 m3|P5 P4 M3 P4|m6 m3|M2 M3 M3|M2 m3 P4 m3|m2 m6 m3|M2 m3|P1||
 D8 | F8 | E8 | G8 | F8 | E8 | D8 | C8 |][K:treble-8] z4 c4- | c4 B4 | A4 d4- | d2 cB c4- | %522
w: ||||||||P1|M2 m3|m6 m3|M2 M3 P4 M3|
 c2 d2 e4- | e2 A2 d4- | d2 c2 c4- | c4 B4 | c8 |] %527
w: P5 P4 m3|m2 m6 m3|M2 M3 M3|M2 m3|P1|

